packages/flame/svg/Icons/icon-windows.svg

<?xml version="1.0" encoding="UTF-8"?>
<svg width="16px" height="16px" viewBox="0 0 16 16" version="1.1" xmlns="http://www.w3.org/2000/svg" xmlns:xlink="http://www.w3.org/1999/xlink">
    <!-- Generator: sketchtool 64 (101010) - https://sketch.com -->
    <title>A3F36560-2973-4555-B1AE-E84BBE68A568@3.00x</title>
    <desc>Created with sketchtool.</desc>
    <g id="Symbols" stroke="none" stroke-width="1" fill="none" fill-rule="evenodd">
        <g id="windows" fill="#232A3B">
            <g id="base-1">
                <path d="M0,2.26533478 L6.53869277,1.37757635 L6.54155105,7.66524117 L0.0059730822,7.70234465 L0,2.26533478 Z M6.53557797,8.38970261 L6.54065326,14.6828472 L0.00507528763,13.78707 L0.00470884087,8.34749015 L6.53557797,8.38970261 Z M7.32822064,1.26144186 L15.9979845,0 L15.9979845,7.58527313 L7.32822064,7.65388892 L7.32822064,1.26144186 Z M16,8.44888407 L15.9979662,16 L7.32820232,14.7801313 L7.31605461,8.43474628 L16,8.44888407 Z"></path>
            </g>
        </g>
    </g>
</svg>

<svg xmlns="http://www.w3.org/2000/svg" viewBox="0 0 16 16"><g id="windows"><path id="base-1" d="M0 2.265l6.539-.887.003 6.287-6.536.037L0 2.265zM6.536 8.39l.005 6.293-6.536-.896v-5.44l6.53.043zm.792-7.129L15.998 0v7.585l-8.67.069V1.26zM16 8.45L15.998 16l-8.67-1.22-.012-6.345L16 8.449z"/></g></svg>
